X: 117102
T: SIR DAVID HUNTER BLAIR
Q: "Reel."
R:  Reel.
%R: reel
B: James Kerr "Merry Melodies" v.1 p.17 s.1 #2
Z: 2017 John Chambers <jc:trillian.mit.edu>
N: The 2nd strain is also 4 bars repeated.
M: C
L: 1/8
K: F
|:\
f2(cd) cdcd | cfa2 cfa2 |\
b2(ga) gaga | gfef (ge)c2 :|\
(af)f2 cfAc | FAcf (eg)g2 |
(af)f2 cfAc | FAcf (ge)f2 |\
(af)f2 cfAc | FAcf (eg)g2 |\
(af)f2 cfAc | FAcf (ge)f2 |]

%%sep 1 1 500
%%sep 1 1 500

